icons/themes/default/org.svg

<svg viewBox="0 0 16 16" fill="none" xmlns="http://www.w3.org/2000/svg">
    <path fill-rule="evenodd" clip-rule="evenodd" d="M7.19262 1.8714L3.18523 3.5703L3.18511 3.57035C3.04203 3.6311 2.94995 3.76842 2.94995 3.93V13.96H6.40002V6.9C6.40002 6.53135 6.54647 6.1778 6.80715 5.91712C7.06782 5.65645 7.42137 5.51 7.79002 5.51H12.68C13.0487 5.51 13.4022 5.65645 13.6629 5.91712C13.9236 6.1778 14.07 6.53135 14.07 6.9V13.96H14.4601C14.7362 13.96 14.9601 14.1839 14.9601 14.46C14.9601 14.7362 14.7362 14.96 14.4601 14.96H1.56006C1.28392 14.96 1.06006 14.7362 1.06006 14.46C1.06006 14.1839 1.28392 13.96 1.56006 13.96H1.94995V3.93C1.94995 3.37163 2.27782 2.86899 2.79468 2.64971L2.79479 2.64966L6.80479 0.949663L6.80893 0.94791L6.80894 0.947929C7.01981 0.86076 7.24889 0.826843 7.47597 0.84917C7.70305 0.871496 7.92114 0.949381 8.11099 1.07595C8.30084 1.20252 8.45661 1.37388 8.56456 1.5749C8.67251 1.77592 8.72931 2.00043 8.72995 2.2286L8.72995 2.23L8.72995 3.78C8.72995 4.05615 8.50609 4.28 8.22995 4.28C7.95381 4.28 7.72995 4.05615 7.72995 3.78V2.23086C7.72968 2.16703 7.71375 2.10423 7.68355 2.04799C7.65326 1.99159 7.60956 1.94351 7.55629 1.908C7.50302 1.87249 7.44183 1.85064 7.37812 1.84437C7.315 1.83816 7.25133 1.84745 7.19262 1.8714ZM13.07 13.96V6.9C13.07 6.79657 13.0289 6.69737 12.9558 6.62423C12.8827 6.55109 12.7835 6.51 12.68 6.51H7.79002C7.68659 6.51 7.58739 6.55109 7.51425 6.62423C7.44111 6.69737 7.40002 6.79657 7.40002 6.9V13.96H13.07ZM9.12 8.18C9.39614 8.18 9.62 8.40386 9.62 8.68V9.12C9.62 9.39614 9.39614 9.62 9.12 9.62C8.84385 9.62 8.62 9.39614 8.62 9.12V8.68C8.62 8.40386 8.84385 8.18 9.12 8.18ZM11.85 8.68C11.85 8.40386 11.6261 8.18 11.35 8.18C11.0738 8.18 10.85 8.40386 10.85 8.68V9.12C10.85 9.39614 11.0738 9.62 11.35 9.62C11.6261 9.62 11.85 9.39614 11.85 9.12V8.68ZM9.12 10.85C9.39614 10.85 9.62 11.0739 9.62 11.35V11.79C9.62 12.0662 9.39614 12.29 9.12 12.29C8.84385 12.29 8.62 12.0662 8.62 11.79V11.35C8.62 11.0739 8.84385 10.85 9.12 10.85ZM11.85 11.35C11.85 11.0739 11.6261 10.85 11.35 10.85C11.0738 10.85 10.85 11.0739 10.85 11.35V11.79C10.85 12.0662 11.0738 12.29 11.35 12.29C11.6261 12.29 11.85 12.0662 11.85 11.79V11.35Z" fill="#6B7280"></path>
</svg>

<svg xmlns="http://www.w3.org/2000/svg" fill="none" viewBox="0 0 16 16">
  <path fill="#6B7280" fill-rule="evenodd" d="m7.193 1.871-4.008 1.7a.385.385 0 0 0-.235.359v10.03H6.4V6.9a1.39 1.39 0 0 1 1.39-1.39h4.89a1.39 1.39 0 0 1 1.39 1.39v7.06h.39a.5.5 0 0 1 0 1H1.56a.5.5 0 1 1 0-1h.39V3.93c0-.558.328-1.061.845-1.28l4.01-1.7.004-.002a1.39 1.39 0 0 1 1.921 1.28V3.78a.5.5 0 1 1-1 0V2.23a.39.39 0 0 0-.537-.359ZM13.07 13.96V6.9a.39.39 0 0 0-.39-.39H7.79a.39.39 0 0 0-.39.39v7.06h5.67ZM9.12 8.18a.5.5 0 0 1 .5.5v.44a.5.5 0 0 1-1 0v-.44a.5.5 0 0 1 .5-.5Zm2.73.5a.5.5 0 0 0-1 0v.44a.5.5 0 1 0 1 0v-.44Zm-2.73 2.17a.5.5 0 0 1 .5.5v.44a.5.5 0 1 1-1 0v-.44a.5.5 0 0 1 .5-.5Zm2.73.5a.5.5 0 0 0-1 0v.44a.5.5 0 1 0 1 0v-.44Z" clip-rule="evenodd"/>
</svg>
